X:1
T:Londonderry air
%%score 1 2
L:1/8
M:4/4
K:F
V:1 treble nm="Pan Flute" snm="Pn. Fl."
V:2 treble nm="Tenor Recorder" snm="T. Rec."
V:1
 z2 z3[Q:1/4=60]"^Adagio" EFG | A3 G AdcA | GF D3 FAB | c3 d cAFA | G4 z EFG | A3 G AdcA | %6
 GF D3 EFG | A3 B AGFG | F4 z cde | f3 e edcd | cA F2 z cde | f3 e edcA | G4 z ccc | a3 g gfdf | %14
 cA F3 EFG | AdcA GFDE | !fermata!F3 z z4 |] z8 | z8 | z8 | z8 | z8 | z8 | z8 | z8 | z8 | z8 | z8 | %28
 z8 | z8 | z8 | z8 |] %32
V:2
 z8 | F3 E F4 | ED F3/2 z/ z4 | A3 B AFAc | E4 z4 | F3 E F4 | ED F3 z z2 | F3 G ABde | f4 z4 | %9
 A3 c GFEG | Fc A2 z ABc | A3 G GFAc | c2 B2 A z z2 | F3 B BdBd | fc B3 cDE | FBAF EDFA | %16
 !fermata!F3 z z4 |] z8 | z8 | z8 | z8 | z8 | z8 | z8 | z8 | z8 | z8 | z8 | z8 | z8 | z8 | z8 |] %32

